public/icons/card-lilly-boto-club.svg

<svg width="110" height="111" viewBox="0 0 110 111" fill="none" xmlns="http://www.w3.org/2000/svg">
<g clip-path="url(#clip0_87_2004)">
<path d="M110 110.609H0V0.609131H110V110.609ZM56.8818 76.7749C56.5714 76.7749 56.2998 77.0465 56.2998 77.3569V90.3164C56.2998 92.528 57.1922 94.6232 58.8219 96.0977C60.4903 97.6109 62.7019 98.4257 64.9524 98.4257C67.2416 98.4645 69.4145 97.6109 71.1217 96.0977C72.7513 94.6232 73.6825 92.528 73.6825 90.3164V77.3569C73.6825 77.0465 73.4109 76.7749 73.1005 76.7749H69.3369C69.0265 76.7749 68.7548 77.0465 68.7548 77.3569V90.0836C68.7936 91.0536 68.4056 91.9848 67.6684 92.6444C66.8924 93.2652 65.9224 93.5756 64.9524 93.5368C63.9824 93.5756 63.0123 93.2652 62.2751 92.6444C61.5767 91.9848 61.1887 91.0536 61.2275 90.0836V77.3569C61.2275 77.0465 60.9559 76.7749 60.6455 76.7749H56.8818V76.7749ZM21.3016 76.4645C15.2487 76.4645 10.321 81.3922 10.3598 87.4839C10.3598 93.5368 15.2875 98.4645 21.3792 98.4257C22.6984 98.4257 24.0176 98.1929 25.2593 97.6885C26.5397 97.1841 27.7425 96.4081 28.7125 95.4381C28.8289 95.3216 28.8677 95.1664 28.9065 95.0112C28.9065 94.856 28.8677 94.7008 28.7513 94.5844L26.3845 92.0624C26.2681 91.946 26.1517 91.9072 25.9965 91.9072C25.8413 91.9072 25.7249 91.946 25.6085 92.0236C24.4832 92.9936 23.0088 93.5368 21.5344 93.498C19.9048 93.498 18.3527 92.8384 17.2275 91.6744C16.1023 90.5104 15.5203 88.9195 15.5203 87.3287C15.5203 85.7379 16.1023 84.1082 17.2275 82.9054C18.3139 81.7026 19.866 81.043 21.4956 81.043C23.0088 81.0042 24.4832 81.5862 25.6085 82.595C25.8025 82.789 26.1517 82.8278 26.3457 82.595L28.7125 80.1118C28.8289 79.9954 28.9065 79.8402 28.9065 79.685C28.9065 79.5298 28.8289 79.3746 28.7125 79.2582C26.6949 77.3957 24.0564 76.3869 21.3016 76.4645V76.4645ZM83.4603 76.7749C83.1499 76.7749 82.8783 77.0465 82.8783 77.3569V97.5333C82.8783 97.8437 83.1499 98.1153 83.4603 98.1153H91.0265C92.7337 98.1541 94.4021 97.5721 95.7213 96.5245C96.3421 96.0201 96.8078 95.3992 97.157 94.662C97.5062 93.886 97.7002 93.0712 97.7002 92.2176C97.739 90.976 97.2734 89.7343 96.3809 88.8419C95.6049 88.1047 94.6737 87.5615 93.6649 87.2511V87.2123C96.3421 86.3199 97.7778 83.4486 96.8854 80.7714C96.575 79.8402 95.9929 79.0254 95.2169 78.4045C93.9365 77.3181 92.2681 76.7361 90.5996 76.7749H83.4603V76.7749ZM37.3651 76.7749C37.0547 76.7749 36.7831 77.0465 36.7831 77.3569V97.5333C36.7831 97.8437 37.0547 98.1153 37.3651 98.1153H48.8113C49.1217 98.1153 49.3933 97.8437 49.3933 97.5333V94.1964C49.3933 93.886 49.1217 93.6144 48.8113 93.6144H41.5556V77.3181C41.5556 77.0077 41.2839 76.7361 40.9735 76.7361H37.3651V76.7749ZM89.5132 45.1523C86.6032 45.1523 83.8095 46.3164 81.7531 48.3728C77.485 52.6797 77.5626 59.6638 81.8695 63.9319C86.1376 68.1224 93.0053 68.1612 97.2734 63.9319C101.58 59.625 101.58 52.6797 97.2734 48.3728C95.2169 46.2776 92.4233 45.1135 89.5132 45.1523ZM43.7284 45.1523C40.8183 45.1523 38.0247 46.3164 35.9683 48.3728C31.739 52.7185 31.8554 59.7026 36.2011 63.9319C40.4691 68.0448 47.2205 68.0836 51.4885 63.9319C55.7954 59.625 55.7954 52.6797 51.4885 48.3728C49.4709 46.2776 46.6772 45.1135 43.7284 45.1523ZM59.8695 45.4239C59.5591 45.4239 59.2875 45.6955 59.2875 46.006V49.3428C59.2875 49.6532 59.5591 49.9248 59.8695 49.9248H64.2152V66.2211C64.2152 66.5315 64.4868 66.8031 64.7972 66.8031H68.4444C68.7548 66.8031 69.0265 66.5315 69.0265 66.2211V49.9248H73.3721C73.6825 49.9248 73.9541 49.6532 73.9541 49.3428V46.006C73.9541 45.6955 73.6825 45.4239 73.3721 45.4239H59.8695V45.4239ZM12.9594 45.4239C12.649 45.4239 12.3774 45.6955 12.3774 46.006V66.1823C12.3774 66.4927 12.649 66.7643 12.9594 66.7643H20.5256C22.2328 66.8031 23.9012 66.2211 25.2205 65.1735C25.8413 64.6691 26.3069 64.0483 26.6561 63.3111C27.0053 62.5351 27.1993 61.7202 27.1993 60.8666C27.2381 59.625 26.7725 58.3834 25.8801 57.491C25.1041 56.7538 24.1728 56.2105 23.164 55.9001V55.8613C25.8413 54.9689 27.2769 52.0589 26.3845 49.4204C26.0741 48.4892 25.4921 47.6744 24.716 47.0536C23.4356 45.9672 21.7672 45.3851 20.0988 45.4239H12.9594V45.4239ZM81.7531 14.1118C81.6367 14.1118 81.5203 14.1506 81.4427 14.267C81.4039 14.3834 81.4427 14.4998 81.5203 14.5774L89.2804 25.0924V35.0642C89.2804 35.4134 89.6296 35.4522 89.94 35.4522H90.2892C90.522 35.4522 90.6772 35.2582 90.6772 35.0642V25.0536L98.5926 14.5774C98.6702 14.4998 98.709 14.3834 98.6702 14.267C98.5926 14.1506 98.4762 14.1118 98.3598 14.1118H97.4286C97.2734 14.1118 97.1182 14.1894 97.0406 14.3058L89.9788 23.7732L83.0335 14.3058C82.9559 14.1894 82.8007 14.1118 82.6455 14.1118H81.7531V14.1118ZM66.582 14.1118C66.3492 14.1118 66.194 14.3058 66.194 14.4998V35.0642C66.194 35.297 66.388 35.4522 66.582 35.4522H77.3298C77.5238 35.491 77.7178 35.3358 77.7178 35.1418V34.5597C77.7178 34.3657 77.679 34.1717 77.3298 34.1717H67.5908V14.4998C67.5908 14.3058 67.4356 14.1118 67.2416 14.1118H66.582ZM46.1728 14.1118C45.94 14.1118 45.7848 14.3058 45.7848 14.4998V35.0642C45.7848 35.297 45.9788 35.4522 46.1728 35.4522H56.9206C57.1146 35.491 57.3086 35.3358 57.3086 35.1418V34.5597C57.3086 34.3657 57.2698 34.1717 56.9206 34.1717H47.1817V14.4998C47.1817 14.3058 47.0265 14.1118 46.8324 14.1118H46.1728V14.1118ZM33.2134 14.1118C32.9806 14.1118 32.8254 14.3058 32.8254 14.4998V35.0642C32.8254 35.297 33.0194 35.4522 33.2134 35.4522H33.873C34.1058 35.4522 34.2998 35.297 34.2998 35.0642V14.4998C34.2998 14.267 34.1058 14.1118 33.9118 14.1118H33.2134ZM12.8042 14.1118C12.5714 14.1118 12.4162 14.3058 12.4162 14.4998V35.0642C12.4162 35.297 12.6102 35.4522 12.8042 35.4522H23.552C23.746 35.491 23.94 35.3358 23.94 35.1418V34.5597C23.94 34.3657 23.9012 34.1717 23.552 34.1717H13.8131V14.4998C13.8131 14.3058 13.6578 14.1118 13.4638 14.1118H12.8042V14.1118ZM90.2116 93.7696H87.612V89.4239H90.2504C90.8713 89.3851 91.4921 89.6179 91.9577 90.0448C92.3457 90.4716 92.5785 91.0148 92.5397 91.5968C92.5785 92.9936 91.7637 93.7696 90.2116 93.7696V93.7696ZM90.1728 85.4275H87.6508V81.1594H90.1728C91.2593 81.1206 92.1517 81.9742 92.1517 83.0606V83.2546C92.2293 84.3799 91.3757 85.3499 90.2504 85.4275H90.1728ZM19.7108 62.4187H17.1111V58.073H19.7496C20.3704 58.0342 20.9912 58.267 21.4568 58.6938C21.8448 59.1206 22.0776 59.6638 22.0388 60.2458C22.0776 61.6426 21.2628 62.4187 19.7108 62.4187V62.4187ZM89.5132 62.2247C86.1764 62.2247 83.4603 59.5086 83.4603 56.1717C83.4603 54.5421 84.1199 52.9901 85.2451 51.8649C87.5732 49.498 91.3757 49.4592 93.7425 51.7873L93.8201 51.8649C94.9841 53.0289 95.6049 54.5809 95.6049 56.1717C95.6049 59.5086 92.8501 62.1859 89.5132 62.2247ZM43.7284 62.2247C40.3915 62.2247 37.6755 59.5086 37.6755 56.1717C37.6755 54.5421 38.3351 52.9901 39.4603 51.8649C41.7884 49.498 45.5908 49.4592 47.9577 51.7873L48.0353 51.8649C49.1993 53.0289 49.8201 54.5809 49.8201 56.1717C49.8201 59.5086 47.1041 62.1859 43.7284 62.2247V62.2247ZM19.6332 54.1153H17.1111V49.8472H19.6332C20.7196 49.8084 21.612 50.662 21.612 51.7485V51.9425C21.6896 53.0677 20.836 54.0377 19.7108 54.1153H19.6332Z" fill="white"/>
</g>
<defs>
<clipPath id="clip0_87_2004">
<rect width="110" height="110" fill="white" transform="translate(0 0.609131)"/>
</clipPath>
</defs>
</svg>

<svg xmlns="http://www.w3.org/2000/svg" width="110" height="111" fill="none" xmlns:v="https://vecta.io/nano"><g clip-path="url(#A)"><path d="M110 110.609H0v-110h110v110zM56.882 76.775a.6.6 0 0 0-.582.582v12.96c0 2.212.892 4.307 2.522 5.781 1.668 1.513 3.88 2.328 6.13 2.328 2.289.039 4.462-.815 6.169-2.328 1.63-1.475 2.561-3.57 2.561-5.781v-12.96a.6.6 0 0 0-.582-.582h-3.764a.6.6 0 0 0-.582.582v12.727c.039.97-.349 1.901-1.086 2.561-.776.621-1.746.931-2.716.892-.97.039-1.94-.272-2.677-.892a3.34 3.34 0 0 1-1.048-2.561V77.357a.6.6 0 0 0-.582-.582h-3.764 0zm-35.58-.31a10.95 10.95 0 1 0 .078 21.961c1.319 0 2.638-.233 3.88-.737 1.28-.504 2.483-1.28 3.453-2.25.116-.117.155-.272.194-.427 0-.155-.039-.31-.155-.427l-2.367-2.522c-.116-.116-.233-.155-.388-.155s-.272.039-.388.116c-1.125.97-2.6 1.513-4.074 1.474-1.63 0-3.182-.66-4.307-1.824s-1.707-2.755-1.707-4.346.582-3.221 1.707-4.423c1.086-1.203 2.639-1.862 4.268-1.862 1.513-.039 2.988.543 4.113 1.552.194.194.543.233.737 0l2.367-2.483c.116-.116.194-.272.194-.427s-.078-.31-.194-.427c-2.018-1.862-4.656-2.871-7.411-2.794h0zm62.159.31a.6.6 0 0 0-.582.582v20.176a.6.6 0 0 0 .582.582h7.566c1.707.039 3.376-.543 4.695-1.591.621-.504 1.087-1.125 1.436-1.862a5.91 5.91 0 0 0 .543-2.444 4.59 4.59 0 0 0-1.319-3.376c-.776-.737-1.707-1.28-2.716-1.591v-.039a5.08 5.08 0 0 0 3.221-6.441c-.31-.931-.892-1.746-1.669-2.367a6.94 6.94 0 0 0-4.617-1.63H83.46h0zm-46.095 0a.6.6 0 0 0-.582.582v20.176a.6.6 0 0 0 .582.582h11.446a.6.6 0 0 0 .582-.582v-3.337a.6.6 0 0 0-.582-.582h-7.256V77.318a.6.6 0 0 0-.582-.582h-3.608v.039zm52.148-31.623c-2.91 0-5.704 1.164-7.76 3.221-4.268 4.307-4.19 11.291.116 15.559 4.268 4.191 11.136 4.229 15.404 0 4.307-4.307 4.307-11.252 0-15.559-2.056-2.095-4.85-3.259-7.76-3.221zm-45.785 0c-2.91 0-5.704 1.164-7.76 3.221-4.229 4.346-4.113 11.33.233 15.559 4.268 4.113 11.019 4.152 15.287 0 4.307-4.307 4.307-11.252 0-15.559-2.018-2.095-4.811-3.259-7.76-3.221zm16.141.272a.6.6 0 0 0-.582.582v3.337a.6.6 0 0 0 .582.582h4.346v16.296a.6.6 0 0 0 .582.582h3.647a.6.6 0 0 0 .582-.582V49.925h4.346a.6.6 0 0 0 .582-.582v-3.337a.6.6 0 0 0-.582-.582H59.87h0zm-46.91 0a.6.6 0 0 0-.582.582v20.176a.6.6 0 0 0 .582.582h7.566c1.707.039 3.376-.543 4.695-1.591.621-.504 1.086-1.125 1.436-1.862a5.91 5.91 0 0 0 .543-2.445 4.59 4.59 0 0 0-1.319-3.376c-.776-.737-1.707-1.28-2.716-1.591v-.039c2.677-.892 4.113-3.802 3.22-6.441a5.1 5.1 0 0 0-1.668-2.367 6.94 6.94 0 0 0-4.617-1.63h-7.139 0zm68.794-31.312c-.116 0-.233.039-.31.155-.039.116 0 .233.078.31l7.76 10.515v9.972c0 .349.349.388.66.388h.349a.39.39 0 0 0 .388-.388V25.054l7.915-10.476c.078-.078.116-.194.078-.31-.078-.116-.194-.155-.31-.155h-.931c-.155 0-.31.078-.388.194l-7.062 9.467-6.945-9.467c-.078-.116-.233-.194-.388-.194h-.892 0zm-15.171 0a.39.39 0 0 0-.388.388v20.564a.39.39 0 0 0 .388.388H77.33a.33.33 0 0 0 .388-.31v-.582c0-.194-.039-.388-.388-.388h-9.739V14.5c0-.194-.155-.388-.349-.388h-.66zm-20.409 0a.39.39 0 0 0-.388.388v20.564a.39.39 0 0 0 .388.388h10.748a.33.33 0 0 0 .388-.31v-.582c0-.194-.039-.388-.388-.388h-9.739V14.5c0-.194-.155-.388-.349-.388h-.66 0zm-12.959 0a.39.39 0 0 0-.388.388v20.564a.39.39 0 0 0 .388.388h.66c.233 0 .427-.155.427-.388V14.5a.39.39 0 0 0-.388-.388h-.698zm-20.409 0a.39.39 0 0 0-.388.388v20.564a.39.39 0 0 0 .388.388h10.748a.33.33 0 0 0 .388-.31v-.582c0-.194-.039-.388-.388-.388h-9.739V14.5c0-.194-.155-.388-.349-.388h-.66 0zM90.212 93.77h-2.6v-4.346h2.638c.621-.039 1.242.194 1.707.621.388.427.621.97.582 1.552.039 1.397-.776 2.173-2.328 2.173h0zm-.039-8.342h-2.522v-4.268h2.522c1.087-.039 1.979.815 1.979 1.901v.194a2.04 2.04 0 0 1-1.901 2.173h-.078zM19.711 62.419h-2.6v-4.346h2.639c.621-.039 1.242.194 1.707.621.388.427.621.97.582 1.552.039 1.397-.776 2.173-2.328 2.173h0zm69.802-.194c-3.337 0-6.053-2.716-6.053-6.053a6.11 6.11 0 0 1 1.785-4.307c2.328-2.367 6.131-2.406 8.497-.078l.078.078a6.08 6.08 0 0 1 1.785 4.307c0 3.337-2.755 6.014-6.092 6.053zm-45.785 0c-3.337 0-6.053-2.716-6.053-6.053a6.11 6.11 0 0 1 1.785-4.307c2.328-2.367 6.131-2.406 8.497-.078l.078.078a6.08 6.08 0 0 1 1.785 4.307c0 3.337-2.716 6.014-6.092 6.053h0zm-24.095-8.109h-2.522v-4.268h2.522c1.086-.039 1.979.815 1.979 1.901v.194a2.04 2.04 0 0 1-1.901 2.173h-.078z" fill="#fff"/></g><defs><clipPath id="A"><path fill="#fff" transform="translate(0 .609)" d="M0 0h110v110H0z"/></clipPath></defs></svg>
